X:1281
T:Beating Around the Bush
S:Mike Nelson, Comando List, 5/97
M:4/4
L:1/8
Q:1/4=115
C:Bill Keith
S:From the playing of Greg Smith
R:H
K:A
(3cd^d| e^de=f ^fagf|e=dce dcB=c^|c=c^cf d=fed|cBAc BA=G2|(3EFA d^f
a=c'^d'=c'|e'^c'ag f2 (3f=fe|1 ^d^fa=c' =c'b a2 |b4 e'2:|2^d^fa=c'
de^gb|a4||
|ag|=g^f=ga b=gea|a^fe^f d2 (3f=fe| ^d^f^c'=c' b^gfg|eB^GB E2
(3e^d=d|c=c^cd cBAG|(3EFA df afed cBAc BAGB| A4:|


